X: 2
T: The Killarney Boys Of Pleasure
R: reel
M: 4/4
L: 1/8
K: Ador
|:A2GB A2(3Bcd|e2dB G2(3Bcd|~e2eg agba|gedB BAAG|
A2GB A2(3Bcd|e2dB G2(3Bcd|~e3g ~a3f|1gedB BAAG:|2gedB BA(3Bcd||
|:eaad eaaf|gedB GA(3Bcd|gbba ~b3a|gedB BA(3Bcd|
eaad eaaf|gedB GA(3Bcd|~b3a bc'ba|1gedB BA(3Bcd:|2gedB BAAG|


Tune 733	Setting 13806

